build/redact/AlignLeftOutline.svg

<svg xmlns="http://www.w3.org/2000/svg" fill="none" viewBox="0 0 24 24" focusable="false"><path d="M0 0H24V24H0z"/><path fill="#74767B" fill-rule="evenodd" d="M4.65 5.5C4.29101 5.5 4 5.79001 4 6.14776C4 6.50551 4.29101 6.79553 4.65 6.79553L19.35 6.79553C19.709 6.79553 20 6.50551 20 6.14776C20 5.79001 19.709 5.5 19.35 5.5L4.65 5.5ZM4.65 13.303C4.29101 13.303 4 13.593 4 13.9508C4 14.3085 4.29101 14.5986 4.65 14.5986L19.35 14.5986C19.709 14.5986 20 14.3085 20 13.9508C20 13.593 19.709 13.303 19.35 13.303L4.65 13.303ZM4 10.0492C4 9.69146 4.29101 9.40145 4.65 9.40145L12.3578 9.40145C12.7168 9.40145 13.0078 9.69146 13.0078 10.0492C13.0078 10.407 12.7168 10.697 12.3578 10.697L4.65 10.697C4.29101 10.697 4 10.407 4 10.0492ZM4.65 17.2045C4.29101 17.2045 4 17.4945 4 17.8522C4 18.21 4.29101 18.5 4.65 18.5L12.3578 18.5C12.7168 18.5 13.0078 18.21 13.0078 17.8522C13.0078 17.4945 12.7168 17.2045 12.3578 17.2045L4.65 17.2045Z"/></svg>

<svg xmlns="http://www.w3.org/2000/svg" fill="none" viewBox="0 0 24 24" focusable="false"><path fill="#74767B" fill-rule="evenodd" d="M4.64 5.5a.644.644 0 0 0 0 1.29h14.71c.35 0 .65-.29.65-.65 0-.35-.3-.64-.65-.64zm0 7.8a.644.644 0 0 0 0 1.29h14.71c.35 0 .65-.29.65-.64 0-.36-.3-.65-.65-.65zM4 10.04c0-.35.29-.64.64-.64h7.71c.36 0 .65.29.65.64 0 .36-.29.65-.65.65H4.64c-.35 0-.64-.29-.64-.65m.64 7.16c-.35 0-.64.29-.64.65 0 .35.29.65.64.65h7.71c.36 0 .65-.3.65-.65 0-.36-.29-.65-.65-.65z"/></svg>
